SVG Logos/APIs/graphql-scalars.svg

<?xml version="1.0" encoding="UTF-8"?>
<svg width="215px" height="105px" viewBox="0 0 215 105" version="1.1" xmlns="http://www.w3.org/2000/svg" xmlns:xlink="http://www.w3.org/1999/xlink">
    <title>GraphQL Tools/ Scalars</title>
    <g id="GraphQL-Tools/-Scalars" stroke="none" stroke-width="1" fill="none" fill-rule="evenodd">
        <rect id="Rectangle" fill="#FFFFFF" x="0" y="0" width="215" height="105"></rect>
        <g id="Libraries-Logos-/-Scalars" transform="translate(6.000000, 20.000000)" fill="#FF3388">
            <path d="M36.0400049,60.3145407 C36.0400049,60.5683309 36.0151531,60.8160963 35.9767457,61.0593432 C35.9722272,61.0902198 35.9684617,61.1203432 35.9631901,61.1504667 C35.5655605,63.4345778 33.5736469,65.1772198 31.178079,65.1772198 C29.0415728,65.1772198 27.2273877,63.7900346 26.5759679,61.8711704 L6.34580741,50.1923062 C4.33958519,49.0340593 3.10452346,46.8930346 3.10452346,44.5780469 L3.10452346,24.9066765 C3.85384444,25.1604667 4.65286914,25.3043062 5.48804198,25.3043062 C6.23736296,25.3043062 6.96032593,25.1905901 7.64262222,24.9842444 L7.64262222,44.5780469 C7.64262222,45.2701333 8.01464691,45.9147753 8.61560988,46.2611951 L27.4872025,57.1568494 C28.3796099,56.1153309 29.7012765,55.4518617 31.178079,55.4518617 C32.7844123,55.4518617 34.2062395,56.2373309 35.0926222,57.441516 C35.108437,57.4633556 35.1250049,57.484442 35.1408198,57.5062815 C35.2025728,57.5943926 35.2613136,57.6840099 35.3177951,57.7766395 C35.3396346,57.8120346 35.3614741,57.8466765 35.3825605,57.8828247 C35.4322642,57.9679235 35.4782025,58.0552815 35.5226346,58.1433926 C35.5467333,58.190837 35.5693259,58.2382815 35.5911654,58.286479 C35.6295728,58.3685654 35.6649679,58.4514049 35.6988568,58.5357506 C35.7229556,58.5959975 35.744042,58.6562444 35.7658815,58.7172444 C35.7929926,58.7940593 35.8193506,58.8716272 35.8419432,58.9499481 C35.8645358,59.0252568 35.8811037,59.1005654 35.8999309,59.175121 C35.9172519,59.2459111 35.9353259,59.3159481 35.9488815,59.3874914 C35.9677086,59.4816272 35.979758,59.576516 35.9933136,59.672158 C36.0000914,59.7301457 36.0113877,59.785121 36.0166593,59.8423556 C36.0309679,59.9982444 36.0400049,60.1548864 36.0400049,60.3145407 L36.0400049,60.3145407 Z M60.919721,17.8487506 C60.919721,19.307479 60.2720667,20.614837 59.2508815,21.5064914 L59.2508815,44.5780469 C59.2508815,46.8930346 58.0165728,49.0340593 56.0095975,50.1923062 L38.629116,60.2264296 C38.6095358,58.5847012 38.0545111,57.0732568 37.1342395,55.8487383 L53.7405481,46.2611951 C54.340758,45.9147753 54.7127827,45.2701333 54.7127827,44.5780469 L54.7127827,22.5178864 C52.684721,21.9334914 51.195116,20.0635778 51.195116,17.8487506 C51.195116,16.7703309 51.5528321,15.7762568 52.1492765,14.9697012 C52.1575605,14.9568988 52.1673506,14.9440963 52.1771407,14.9312938 C52.2893506,14.7821827 52.4098444,14.6383432 52.5386222,14.5027877 L52.5559432,14.4839605 C52.8225358,14.2060716 53.120758,13.9620716 53.4460914,13.7534667 C53.4799802,13.7316272 53.5153753,13.7120469 53.5500173,13.6902074 C53.6787951,13.6133926 53.8105852,13.5403432 53.9461407,13.4748247 C53.9860543,13.4559975 54.0259679,13.4356642 54.0666346,13.4175901 C54.236079,13.3407753 54.4107951,13.2699852 54.5907827,13.2142568 C54.5915358,13.2142568 54.5915358,13.2142568 54.5915358,13.2135037 C55.054684,13.0666519 55.5464494,12.9860716 56.0577951,12.9860716 C58.7395358,12.9860716 60.919721,15.1670099 60.919721,17.8487506 L60.919721,17.8487506 Z M3.10452346,22.0826025 C1.6269679,21.2474296 0.625362963,19.6636889 0.625362963,17.8487506 C0.625362963,15.1670099 2.80630123,12.9860716 5.48804198,12.9860716 C6.18314074,12.9860716 6.84284444,13.1359358 7.44154815,13.399516 L27.936042,1.56702222 C28.9384,0.987898765 30.0589926,0.69871358 31.1773259,0.69871358 C32.2971654,0.69871358 33.4170049,0.987898765 34.419363,1.56702222 L51.9022642,11.6613926 C50.6159926,12.5289481 49.6196593,13.7896148 49.0729185,15.2664173 L32.1503136,5.49738025 C31.8551037,5.32642963 31.5184741,5.23681235 31.1773259,5.23681235 C30.8369309,5.23681235 30.5010543,5.32642963 30.2050914,5.49738025 L10.2724,17.0060469 C10.3205975,17.2801704 10.3499679,17.5603185 10.3499679,17.8487506 C10.3499679,19.9408247 9.0192642,21.7233802 7.16215309,22.4079358 C7.14784444,22.4132074 7.13278272,22.4192321 7.11922716,22.4237506 C6.97086914,22.4757136 6.82251111,22.5216519 6.66963457,22.5600593 C6.63875802,22.5675901 6.60863457,22.5766272 6.57775802,22.5826519 C6.43768395,22.6150346 6.29459753,22.6406395 6.15075802,22.6609728 C6.11159753,22.6662444 6.07319012,22.6737753 6.03327654,22.6782938 C5.85404198,22.6986272 5.67254815,22.7114296 5.48804198,22.7114296 C5.28998025,22.7114296 5.09493086,22.6956148 4.90214074,22.6722691 C4.85093086,22.6662444 4.80047407,22.6572074 4.74851111,22.6489235 C4.60090617,22.6263309 4.45631358,22.5977136 4.31247407,22.5615654 C4.26879506,22.5502691 4.22436296,22.540479 4.17993086,22.5276765 C3.8011284,22.4207383 3.4404,22.2723802 3.10452346,22.0826025 L3.10452346,22.0826025 Z" id="Fill-2"></path>
            <path d="M28.5458568,45.0488491 L17.8050078,39.348501 L28.5458568,21.1712768 L28.5458568,45.0488491 Z M31.6504561,21.1712768 L40.4458027,36.058865 L31.6504561,31.3317045 L31.6504561,21.1712768 Z M31.4741477,47.6830017 L31.4741477,34.561989 L43.6848154,41.1246774 C44.2503989,41.4266711 44.9940364,41.3070955 45.4348075,40.8488682 C45.8877979,40.3766758 45.9724609,39.653113 45.6390459,39.0884024 L31.4462176,15.0676886 C31.1712812,14.6016059 30.6580666,14.3292879 30.1177948,14.3545995 C30.0924831,14.3537267 30.0680444,14.3528539 30.0436056,14.3528539 C29.4902415,14.3528539 29.0128122,14.6225534 28.7492224,15.0685614 L14.5563941,39.0892752 C14.1479172,39.7796711 14.3748488,40.6769238 15.0626262,41.0888921 L29.2423623,48.9302529 C29.7119362,49.2130447 30.281011,49.2121719 30.731383,48.958183 C31.1896103,48.6989572 31.4741477,48.2101814 31.4741477,47.6830017 L31.4741477,47.6830017 Z" id="Fill-1"></path>
        </g>
        <path d="M74.493,64.022 L74.493,64.175 C74.493,66.776 76.941,68.255 80.12,68.255 C83.146,68.255 85.39,66.895 85.39,64.311 C85.39,61.4870571 82.4381894,60.3796563 80.5864324,59.726486 L79.980413,59.514433 C78.72872,59.06905 78.233,58.8013 78.233,58.327 C78.233,57.885 78.692,57.426 79.848,57.426 C81.225,57.426 81.888,58.191 81.888,58.837 L81.888,58.956 L85.203,58.956 L85.203,58.769 C85.203,56.134 82.874,54.485 79.78,54.485 C76.754,54.485 74.595,56.066 74.595,58.599 C74.595,61.175 77.0495882,62.2300588 79.0958166,62.9263633 L79.474,63.053 C81.072,63.597 81.735,63.937 81.735,64.498 C81.735,64.889 81.327,65.314 80.052,65.314 C78.505,65.314 77.808,64.617 77.808,64.107 L77.808,64.022 L74.493,64.022 Z M97.652428,63.087 C97.057428,64.209 95.884428,64.974 94.473428,64.974 C92.484428,64.974 90.869428,63.376 90.869428,61.37 C90.869428,59.364 92.484428,57.766 94.473428,57.766 C95.867428,57.766 97.057428,58.531 97.652428,59.653 L100.746428,58.259 C99.573428,56.032 97.210428,54.485 94.473428,54.485 C90.648428,54.485 87.435428,57.579 87.435428,61.37 C87.435428,65.161 90.648428,68.255 94.473428,68.255 C97.210428,68.255 99.607428,66.708 100.763428,64.447 L97.652428,63.087 Z M106.871856,54.74 L101.499856,68 L105.205856,68 L105.936856,66.062 L111.155856,66.062 L111.886856,68 L115.592856,68 L110.237856,54.74 L106.871856,54.74 Z M109.999856,62.985 L107.092856,62.985 L108.554856,59.092 L109.999856,62.985 Z M117.774284,68 L127.515284,68 L127.515284,64.719 L121.157284,64.719 L121.157284,54.74 L117.774284,54.74 L117.774284,68 Z M134.269712,54.74 L128.897712,68 L132.603712,68 L133.334712,66.062 L138.553712,66.062 L139.284712,68 L142.990712,68 L137.635712,54.74 L134.269712,54.74 Z M137.397712,62.985 L134.490712,62.985 L135.952712,59.092 L137.397712,62.985 Z M145.17214,54.74 L145.17214,68 L148.55514,68 L148.55514,64.447 L150.28914,64.447 L152.80514,68 L156.86814,68 L153.99514,63.988 C155.78014,63.172 156.61314,61.438 156.61314,59.585 C156.61314,56.95 155.04914,54.74 151.64914,54.74 L145.17214,54.74 Z M151.46214,57.834 C152.82214,57.834 153.33214,58.599 153.33214,59.619 C153.33214,60.537 152.82214,61.37 151.46214,61.37 L148.55514,61.37 L148.55514,57.834 L151.46214,57.834 Z M158.828568,64.022 L162.143568,64.022 L162.143568,64.107 C162.143568,64.617 162.840568,65.314 164.387568,65.314 C165.662568,65.314 166.070568,64.889 166.070568,64.498 C166.070568,63.937 165.407568,63.597 163.809568,63.053 L163.04363,62.7913183 C161.087921,62.0922353 158.930568,61.014 158.930568,58.599 C158.930568,56.066 161.089568,54.485 164.115568,54.485 C167.209568,54.485 169.538568,56.134 169.538568,58.769 L169.538568,58.956 L166.223568,58.956 L166.223568,58.837 C166.223568,58.191 165.560568,57.426 164.183568,57.426 C163.027568,57.426 162.568568,57.885 162.568568,58.327 C162.568568,58.8013 163.064288,59.06905 164.315981,59.514433 L165.259376,59.8467235 C167.110815,60.5158784 169.725568,61.6531714 169.725568,64.311 C169.725568,66.895 167.481568,68.255 164.455568,68.255 C161.276568,68.255 158.828568,66.776 158.828568,64.175 L158.828568,64.022 Z" id="Scalars" fill="#050713" fill-rule="nonzero"></path>
        <path d="M78.565,41.821 L80.644,41.821 L80.644,42.063 C80.237,42.657 79.577,43.042 78.807,43.042 C77.509,43.042 76.475,42.008 76.475,40.71 C76.475,39.412 77.509,38.378 78.807,38.378 C79.555,38.378 80.215,38.719 80.644,39.258 L82.437,38.048 C81.612,36.97 80.281,36.255 78.807,36.255 C76.321,36.255 74.253,38.257 74.253,40.71 C74.253,43.163 76.321,45.165 78.807,45.165 C79.687,45.165 80.556,44.835 80.974,44.197 L80.974,45 L82.701,45 L82.701,39.995 L78.565,39.995 L78.565,41.821 Z M86.3105714,36.42 L86.3105714,45 L88.4995714,45 L88.4995714,42.701 L89.6215714,42.701 L91.2495714,45 L93.8785714,45 L92.0195714,42.404 C93.1745714,41.876 93.7135714,40.754 93.7135714,39.555 C93.7135714,37.85 92.7015714,36.42 90.5015714,36.42 L86.3105714,36.42 Z M90.3805714,38.422 C91.2605714,38.422 91.5905714,38.917 91.5905714,39.577 C91.5905714,40.171 91.2605714,40.71 90.3805714,40.71 L88.4995714,40.71 L88.4995714,38.422 L90.3805714,38.422 Z M99.8861429,36.42 L96.4101429,45 L98.8081429,45 L99.2811429,43.746 L102.658143,43.746 L103.131143,45 L105.529143,45 L102.064143,36.42 L99.8861429,36.42 Z M101.910143,41.755 L100.029143,41.755 L100.975143,39.236 L101.910143,41.755 Z M108.687714,45 L110.887714,45 L110.887714,43.053 L112.471714,43.053 C114.748714,43.053 115.837714,41.524 115.837714,39.709 C115.837714,37.982 114.748714,36.42 112.471714,36.42 L108.687714,36.42 L108.687714,45 Z M112.350714,38.422 C113.274714,38.422 113.615714,39.038 113.615714,39.72 C113.615714,40.479 113.274714,41.051 112.350714,41.051 L110.887714,41.051 L110.887714,38.422 L112.350714,38.422 Z M124.870286,36.42 L124.870286,39.753 L121.372286,39.753 L121.372286,36.42 L119.183286,36.42 L119.183286,45 L121.372286,45 L121.372286,41.81 L124.870286,41.81 L124.870286,45 L127.070286,45 L127.070286,36.42 L124.870286,36.42 Z M130.481857,40.71 C130.481857,42.91 132.153857,44.758 134.287857,45.099 C135.772857,45.594 136.773857,47.134 138.500857,47.134 C139.281857,47.134 140.282857,46.815 140.898857,45.968 L139.237857,44.626 C139.006857,44.978 138.610857,45.011 138.489857,45.011 C138.115857,45.011 137.763857,44.813 137.367857,44.538 C138.698857,43.757 139.589857,42.338 139.589857,40.71 C139.589857,38.257 137.543857,36.255 135.035857,36.255 C132.560857,36.255 130.481857,38.257 130.481857,40.71 Z M132.703857,40.71 C132.703857,39.412 133.748857,38.378 135.035857,38.378 C136.355857,38.378 137.367857,39.412 137.367857,40.71 C137.367857,42.008 136.355857,43.042 135.035857,43.042 C133.748857,43.042 132.703857,42.008 132.703857,40.71 Z M143.012429,45 L143.012429,36.42 L145.201429,36.42 L145.201429,42.877 L149.315429,42.877 L149.315429,45 L143.012429,45 Z" id="GraphQL" fill="#6D7A99" fill-rule="nonzero"></path>
    </g>
</svg>

<svg xmlns="http://www.w3.org/2000/svg" viewBox="0 0 215 105"><g fill="none" fill-rule="evenodd"><path fill="#FFF" d="M0 0h215v105H0z"/><g fill="#F38"><path d="M42.04 80.315c0 .253-.025.501-.063.744l-.014.091a4.866 4.866 0 0 1-4.785 4.027 4.868 4.868 0 0 1-4.602-3.306l-20.23-11.679a6.483 6.483 0 0 1-3.241-5.614V44.907c.749.253 1.548.397 2.383.397.75 0 1.472-.113 2.155-.32v19.594c0 .692.372 1.337.973 1.683l18.871 10.896a4.85 4.85 0 0 1 3.691-1.705c1.606 0 3.028.785 3.915 1.99l.048.064c.062.088.12.178.177.27l.065.107a4.807 4.807 0 0 1 .316.653c.024.06.045.12.067.181.027.077.053.155.076.233.023.075.04.15.058.225.017.07.035.14.049.212.019.095.03.19.044.285.007.058.018.113.024.17.014.156.023.313.023.473Zm24.88-42.466a4.844 4.844 0 0 1-1.67 3.657v23.072a6.482 6.482 0 0 1-3.24 5.614L44.63 80.226a7.409 7.409 0 0 0-1.496-4.377l16.607-9.588c.6-.346.972-.99.972-1.683v-22.06a4.867 4.867 0 0 1-3.518-4.67 4.826 4.826 0 0 1 .982-2.917c.112-.149.233-.293.362-.428l.017-.019c.267-.278.565-.522.89-.73l.104-.064c.129-.077.26-.15.396-.215.04-.019.08-.04.12-.057.17-.077.345-.148.525-.204a4.84 4.84 0 0 1 1.467-.228 4.867 4.867 0 0 1 4.862 4.863ZM9.105 42.083a4.864 4.864 0 0 1-2.48-4.234 4.868 4.868 0 0 1 4.863-4.863c.695 0 1.355.15 1.954.414l20.494-11.833a6.478 6.478 0 0 1 6.483 0l17.483 10.094a7.488 7.488 0 0 0-2.83 3.605L38.15 25.497a1.944 1.944 0 0 0-1.945 0L16.272 37.006c.049.274.078.554.078.843a4.866 4.866 0 0 1-3.188 4.559l-.043.016a5.153 5.153 0 0 1-.45.136c-.03.008-.06.017-.091.023-.14.032-.283.058-.427.078-.04.005-.078.013-.118.017-.179.02-.36.033-.545.033-.198 0-.393-.015-.586-.039-.051-.006-.102-.015-.153-.023a4.7 4.7 0 0 1-.437-.087l-.132-.034a4.875 4.875 0 0 1-1.075-.445Z"/><path d="m34.546 65.049-10.741-5.7 10.74-18.178V65.05ZM37.65 41.17l8.796 14.888-8.796-4.727v-10.16Zm-.176 26.512V54.562l12.21 6.563c.566.302 1.31.182 1.75-.276a1.47 1.47 0 0 0 .205-1.76L37.446 35.067a1.462 1.462 0 0 0-1.328-.713l-.074-.002c-.554 0-1.031.27-1.295.716l-14.193 24.02a1.466 1.466 0 0 0 .507 2l14.18 7.841c.469.283 1.038.282 1.488.028.459-.259.743-.748.743-1.275Z"/></g><path fill="#050713" fill-rule="nonzero" d="M74.493 64.022v.153c0 2.601 2.448 4.08 5.627 4.08 3.026 0 5.27-1.36 5.27-3.944 0-2.824-2.952-3.931-4.804-4.585l-.606-.212c-1.251-.445-1.747-.713-1.747-1.187 0-.442.459-.901 1.615-.901 1.377 0 2.04.765 2.04 1.411v.119h3.315v-.187c0-2.635-2.329-4.284-5.423-4.284-3.026 0-5.185 1.581-5.185 4.114 0 2.576 2.455 3.631 4.5 4.327l.379.127c1.598.544 2.261.884 2.261 1.445 0 .391-.408.816-1.683.816-1.547 0-2.244-.697-2.244-1.207v-.085h-3.315Zm23.16-.935c-.596 1.122-1.769 1.887-3.18 1.887a3.595 3.595 0 0 1-3.604-3.604 3.595 3.595 0 0 1 3.604-3.604c1.394 0 2.584.765 3.18 1.887l3.093-1.394a7.088 7.088 0 0 0-6.273-3.774c-3.825 0-7.038 3.094-7.038 6.885s3.213 6.885 7.038 6.885c2.737 0 5.134-1.547 6.29-3.808l-3.11-1.36Zm9.219-8.347L101.5 68h3.706l.73-1.938h5.22l.73 1.938h3.707l-5.355-13.26h-3.366ZM110 62.985h-2.907l1.462-3.893L110 62.985ZM117.774 68h9.741v-3.281h-6.358V54.74h-3.383V68Zm16.496-13.26L128.898 68h3.706l.73-1.938h5.22l.73 1.938h3.707l-5.355-13.26h-3.366Zm3.128 8.245h-2.907l1.462-3.893 1.445 3.893Zm7.774-8.245V68h3.383v-3.553h1.734L152.805 68h4.063l-2.873-4.012c1.785-.816 2.618-2.55 2.618-4.403 0-2.635-1.564-4.845-4.964-4.845h-6.477Zm6.29 3.094c1.36 0 1.87.765 1.87 1.785 0 .918-.51 1.751-1.87 1.751h-2.907v-3.536h2.907Zm7.367 6.188h3.315v.085c0 .51.697 1.207 2.244 1.207 1.275 0 1.683-.425 1.683-.816 0-.561-.663-.901-2.261-1.445l-.766-.262c-1.956-.699-4.113-1.777-4.113-4.192 0-2.533 2.159-4.114 5.185-4.114 3.094 0 5.423 1.649 5.423 4.284v.187h-3.315v-.119c0-.646-.663-1.411-2.04-1.411-1.156 0-1.615.459-1.615.901 0 .474.495.742 1.747 1.187l.943.333c1.852.669 4.467 1.806 4.467 4.464 0 2.584-2.244 3.944-5.27 3.944-3.18 0-5.627-1.479-5.627-4.08v-.153Z"/><path fill="#6D7A99" fill-rule="nonzero" d="M78.565 41.821h2.079v.242a2.208 2.208 0 0 1-1.837.979 2.32 2.32 0 0 1-2.332-2.332 2.32 2.32 0 0 1 2.332-2.332c.748 0 1.408.341 1.837.88l1.793-1.21a4.591 4.591 0 0 0-3.63-1.793c-2.486 0-4.554 2.002-4.554 4.455 0 2.453 2.068 4.455 4.554 4.455.88 0 1.749-.33 2.167-.968V45h1.727v-5.005h-4.136v1.826Zm7.746-5.401V45H88.5v-2.299h1.122L91.25 45h2.629l-1.86-2.596c1.156-.528 1.695-1.65 1.695-2.849 0-1.705-1.012-3.135-3.212-3.135H86.31Zm4.07 2.002c.88 0 1.21.495 1.21 1.155 0 .594-.33 1.133-1.21 1.133H88.5v-2.288h1.88Zm9.505-2.002L96.41 45h2.398l.473-1.254h3.377l.473 1.254h2.398l-3.465-8.58h-2.178Zm2.024 5.335h-1.88l.945-2.519.935 2.519ZM108.688 45h2.2v-1.947h1.584c2.277 0 3.366-1.529 3.366-3.344 0-1.727-1.09-3.289-3.366-3.289h-3.784V45Zm3.663-6.578c.924 0 1.265.616 1.265 1.298 0 .759-.341 1.331-1.265 1.331h-1.463v-2.629h1.463Zm12.52-2.002v3.333h-3.499V36.42h-2.189V45h2.19v-3.19h3.497V45h2.2v-8.58h-2.2Zm5.61 4.29c0 2.2 1.673 4.048 3.807 4.389 1.485.495 2.486 2.035 4.213 2.035.78 0 1.782-.319 2.398-1.166l-1.661-1.342c-.231.352-.627.385-.748.385-.374 0-.726-.198-1.122-.473 1.33-.781 2.222-2.2 2.222-3.828 0-2.453-2.046-4.455-4.554-4.455-2.475 0-4.554 2.002-4.554 4.455Zm2.223 0a2.326 2.326 0 0 1 2.332-2.332 2.306 2.306 0 0 1 2.332 2.332 2.306 2.306 0 0 1-2.332 2.332 2.326 2.326 0 0 1-2.332-2.332ZM143.012 45v-8.58h2.19v6.457h4.113V45h-6.303Z"/></g></svg>
